X: 14
T: Jenny's Welcome To Charlie
Z: Cybersaur
S: https://thesession.org/tunes/370#setting51966
R: reel
M: 4/4
L: 1/8
K: Edor
|:E3 c BAGE|F2 dF eFdF|E3 c BAGE|FAdF FEDF|
E3 c BAGE|FABcd3e|fded BAFG|AFdF FE3:|
|:g3e fgfe|dB3 dBA2|gfeg fede|fbba feef|
~g3e fgfe|dB3 ABde|fded BAFG|AFdF FE3:|
|:b3 b-b2 f^g|a^gab afe2|fbba b3a|fbba fee2|
b3 b-b2 f^g|a^gab afec|ABde f2ed|BAdF FE3:|
|:Beed efgd|Adde dBAd|Beed e2 de|fbba fee2|
~e2df edBc|~d2de dBAF|E2GA Be2 d|B2AF FEE2:|

